X: 4
T: Piss Upon The Grass
R: jig
M: 6/8
L: 1/8
K: Gmaj
|:G2 G G2 B|d2 B G2 B|A2 B A2 B|A2 G FED|
G2 G G2 B|d2 B G2 B|ABG FGE|D3 D3:|
|:A2 B A2 B|A2 G FED|B2 c d2 e|dec BAG|
c2 B c2 d|egf gfe|dcB AGF|G3 G3:|

